src/topics/icons/watchman.svg

<?xml version="1.0" encoding="UTF-8"?>
<svg width="256px" height="256px" viewBox="0 0 256 256" version="1.1" xmlns="http://www.w3.org/2000/svg" xmlns:xlink="http://www.w3.org/1999/xlink" preserveAspectRatio="xMidYMid">
    <defs>
        <path d="M256,128 C256,198.692 198.692,256 128,256 C57.308,256 0,198.692 0,128 C0,57.308 57.308,0 128,0 C198.692,0 256,57.308 256,128" id="path-1"></path>
    </defs>
	<g>
		<mask id="mask-2" fill="white">
			<use xlink:href="#path-1"></use>
		</mask>
		<use fill="#4356E6" xlink:href="#path-1"></use>
		<path d="M128,172.2959 C116.635,172.5889 92.869,165.2699 56.516,129.1499 C88.439,96.8399 110.497,85.6999 127.532,85.2889 C138.897,84.9959 159.565,91.3529 199.332,129.1499 C168.324,160.0759 145.036,171.8849 128,172.2959 M214.814,130.5629 C214.424,130.1849 213.773,129.5239 213.384,129.1499 C231.674,110.9709 244.821,97.6079 253.495,88.6819 C252.445,85.3289 251.26,82.0359 249.955,78.8039 C238.354,90.3939 219.015,109.7949 206.511,122.9089 C173.919,91.5249 147.793,75.9639 128.102,76.1169 C127.837,76.1189 127.572,76.1249 127.311,76.1269 C106.192,76.2579 81.341,91.9989 49.642,122.5779 C49.3,122.2499 21.573,93.0929 6.633,77.3659 C5.117,80.9949 3.758,84.7049 2.566,88.4909 C18.236,105.0179 42.57,129.4649 42.835,129.7189 C42.249,130.2819 18.729,153.6969 3.332,169.8669 C4.522,173.4109 5.863,176.8859 7.34,180.2879 C22.288,164.6649 48.895,136.8939 49.596,136.2209 C83.24,167.4379 108.591,182.1819 127.32,182.1819 C127.585,182.1819 127.85,182.1789 128.111,182.1729 C147.73,181.6979 170.433,169.5569 206.646,135.7539 C206.982,136.0769 233.893,163.7959 249.041,179.4169 C250.393,176.2399 251.62,172.9979 252.723,169.6979 C243.385,159.4729 229.813,145.0579 214.814,130.5629" fill="#FFFFFF" mask="url(#mask-2)"></path>
		<path d="M149.6914,114.4653 L149.6914,143.9783 L128.0004,154.7633 L106.3084,143.3673 L106.3084,113.8543 L128.0004,103.1533 L149.6914,114.4653 Z M123.9454,94.9343 L102.2534,105.6353 C99.1254,107.1793 97.1444,110.3653 97.1444,113.8543 L97.1444,143.3673 C97.1444,146.7723 99.0324,149.8963 102.0454,151.4803 L123.7374,162.8773 C125.0714,163.5773 126.5354,163.9273 128.0004,163.9273 C129.3964,163.9273 130.7944,163.6093 132.0804,162.9693 L153.7714,152.1843 C156.8864,150.6353 158.8554,147.4573 158.8554,143.9783 L158.8554,114.4653 C158.8554,111.0503 156.9574,107.9183 153.9284,106.3393 L132.2374,95.0273 C130.9114,94.3353 129.4564,93.9883 128.0004,93.9883 C126.6124,93.9883 125.2244,94.3033 123.9454,94.9343 L123.9454,94.9343 Z" fill="#FFFFFF" mask="url(#mask-2)"></path>
	</g>
</svg>

<svg height="256" preserveAspectRatio="xMidYMid" viewBox="0 0 256 256" width="256" xmlns="http://www.w3.org/2000/svg" xmlns:xlink="http://www.w3.org/1999/xlink"><defs><path id="a" d="m256 128c0 70.692-57.308 128-128 128s-128-57.308-128-128 57.308-128 128-128 128 57.308 128 128"/><mask id="b" fill="#fff"><use fill="#fff" xlink:href="#a"/></mask></defs><use fill="#4356e6" xlink:href="#a"/><g fill="#fff"><path d="m128 172.2959c-11.365.293-35.131-7.026-71.484-43.146 31.923-32.31 53.981-43.45 71.016-43.861 11.365-.293 32.033 6.064 71.8 43.861-31.008 30.926-54.296 42.735-71.332 43.146m86.814-41.733c-.39-.378-1.041-1.039-1.43-1.413 18.29-18.179 31.437-31.542 40.111-40.468-1.05-3.353-2.235-6.646-3.54-9.878-11.601 11.59-30.94 30.991-43.444 44.105-32.592-31.384-58.718-46.945-78.409-46.792-.265.002-.53.008-.791.01-21.119.131-45.97 15.872-77.669 46.451-.342-.328-28.069-29.485-43.009-45.212-1.516 3.629-2.875 7.339-4.067 11.125 15.67 16.527 40.004 40.974 40.269 41.228-.586.563-24.106 23.978-39.503 40.148 1.19 3.544 2.531 7.019 4.008 10.421 14.948-15.623 41.555-43.394 42.256-44.067 33.644 31.217 58.995 45.961 77.724 45.961.265 0 .53-.003.791-.009 19.619-.475 42.322-12.616 78.535-46.419.336.323 27.247 28.042 42.395 43.663 1.352-3.177 2.579-6.419 3.682-9.719-9.338-10.225-22.91-24.64-37.909-39.135" mask="url(#b)"/><path d="m149.6914 114.4653v29.513l-21.691 10.785-21.692-11.396v-29.513l21.692-10.701zm-25.746-19.531-21.692 10.701c-3.128 1.544-5.109 4.73-5.109 8.219v29.513c0 3.405 1.888 6.529 4.901 8.113l21.692 11.397c1.334.7 2.798 1.05 4.263 1.05 1.396 0 2.794-.318 4.08-.958l21.691-10.785c3.115-1.549 5.084-4.727 5.084-8.206v-29.513c0-3.415-1.898-6.547-4.927-8.126l-21.691-11.312c-1.326-.692-2.781-1.039-4.237-1.039-1.388 0-2.776.315-4.055.946z" mask="url(#b)"/></g></svg>
